X: 38
T: Missa Et trop penser &mdash; Sanctus
C: Gaspar van Weerbeke
%%abc-version 2.0
%%abcx-abcm2ps-target-version 5.9.1 (29 Sep 2008)
%%abc-creator hum2abc beta
%%abcx-conversion-date 2022/03/06 13:05:54
%%abc-copyright Copyright 2016, Kolb, Paul
%%abc-edited-by Zybina, Karina
%%humdrum-veritas 1463010903
%%humdrum-veritas-data 2486133304
%%linebreak <none>
%%barnumbers 0
L: 1/4
M: 3/2
N: Derived from Gas0202d-Missa_Et_trop_penser-Sanctus.krn
%%staves [1 2 3 4]
V: 1 clef=treble
V: 2 clef=treble-8
V: 3 clef=treble-8
V: 4 clef=bass
K: F
[V:1] G2DE>FG- | 
[V:2] z6 | 
[V:3] z6 | 
[V:4] G,3C,2B,, | 
[V:1] GF/E/FG>AB- | 
[V:2] G2DE>FG- | 
[V:3] z6 | 
[V:4] G,,2z2z2 | 
[V:1] Bc2B/A/G2 | 
[V:2] GEF2G3/A/ | 
[V:3] z6 | 
[V:4] z6 | 
[V:1] zA>Bc/d/BA/G/ | 
[V:2] Bc>BAG2 | 
[V:3] z6 | 
[V:4] z6 | 
[V:1] F2ED>CB, | 
[V:2] A>B c/d/B2A/G/ | 
[V:3] z6 | 
[V:4] z6 | 
[V:1] A,4z2 | 
[V:2] ^F4G3/A/ | 
[V:3] z6 | 
[V:4] z2D,2E,G,- | 
[V:1] z6 | 
[V:2] B/c<dc/BAD | 
[V:3] z6 | 
[V:4] G,F,/E,<D,E,/ F,/G,/A,- | 
[V:1] z2c2B3/G/ | 
[V:2] FGA2zG | 
[V:3] z6 | 
[V:4] A,G,2F,G,E, | 
[V:1] A/G/F/E/DF>ED/C/ | 
[V:2] c2BA/G/FG- | 
[V:3] z6 | 
[V:4] F,2z2z2 | 
[V:1] B,A,B,G,A,3/B,/ | 
[V:2] GFGEF3/E/ | 
[V:3] z6 | 
[V:4] z6 | 
[V:1] A,B,>A,D2^C | 
[V:2] FGD2E2 | 
[V:3] z6 | 
[V:4] z6 | 
[V:1] D4z2 | 
[V:2] D4D2 | 
[V:3] z6 | 
[V:4] A,3G,/F,/B,A,- | 
[V:1] A3G/F/BA- | 
[V:2] c2d2Bc | 
[V:3] z6 | 
[V:4] A,/G,/F,/E,/D,2G,F, | 
[V:1] A/G/F/E/D2zF- | 
[V:2] d2B>GAB | 
[V:3] z6 | 
[V:4] D,2G,2F,D,- | 
[V:1] F/G/AGEFA- | 
[V:2] Ad2^cd2 | 
[V:3] z6 | 
[V:4] D,F,E,2D,2- | 
[V:1] A/G<FE/D/C/DC/B,/ | 
[V:2] zd>cB2A/G/ | 
[V:3] z6 | 
[V:4] D,2z2z2 | 
[V:1] A,B,>A,C>B,A,/G,/ | 
[V:2] FG>FA>Bc- | 
[V:3] z6 | 
[V:4] z2z2A,,3/B,,/ | 
[V:1] A,B,G,G2^F | 
[V:2] cd2BA2 | 
[V:3] z6 | 
[V:4] C,B,,2G,,D,2 | 
[V:1] G4z2 | 
[V:2] G2z2B2- | 
[V:3] G6- | 
[V:4] _E,6- | 
[V:1] B2c4 | 
[V:2] B2_e4 | 
[V:3] G6 | 
[V:4] E,2C,4 | 
[V:1] d4B2- | 
[V:2] f4fg- | 
[V:3] B6 | 
[V:4] B,,2B,,>C,D,_E,- | 
[V:1] B2GB>AG | 
[V:2] g_e2d2c | 
[V:3] G6 | 
[V:4] E,/F,<G,F,/_E,/D,/E,2 | 
[V:1] F2>G2A2 | 
[V:2] d3c/B/A2 | 
[V:3] A6 | 
[V:4] D,2>E,2F,2 | 
[V:1] D4d2 | 
[V:2] G4G2 | 
[V:3] B6 | 
[V:4] G,2G,,4 | 
[V:1] d4B3/A/ | 
[V:2] D>_EFGFB- | 
[V:3] d6- | 
[V:4] B,,6 | 
[V:1] F3B3 | 
[V:2] B/c/d/_e/fgf2- | 
[V:3] d6 | 
[V:4] B,2>G,2B,2 | 
[V:1] A>BcABG- | 
[V:2] f_e/d/cfd_e | 
[V:3] c4B2 | 
[V:4] F,4G,_E, | 
[V:1] G/F/FG/F/E/D/E2 | 
[V:2] c4c2 | 
[V:3] A2G4 | 
[V:4] F,2C,4 | 
[V:1] F4zF- | 
[V:2] A>FABAd- | 
[V:3] F6 | 
[V:4] D,4D,3/E,/ | 
[V:1] F/_E/CDB,A,2 | 
[V:2] d/c/ABG2^F | 
[V:3] z6 | 
[V:4] F,2B,,C,D,2 | 
[V:1] GB2G2^F | 
[V:2] G2zGAc | 
[V:3] z6 | 
[V:4] G,,2B,,C,A,,2 | 
[V:1] G2zGAc | 
[V:2] Bd2BA2 | 
[V:3] GB2G2^F | 
[V:4] G,,4z2 | 
[V:1] Bd2BA2 | 
[V:2] G2def3/e/ | 
[V:3] G4A2 | 
[V:4] z2z2F,2 | 
[V:1] GB2AGd | 
[V:2] d/c/B2fdg | 
[V:3] Bd2cBG | 
[V:4] G,2zF,G,2 | 
[V:1] cA2G2^F | 
[V:2] efdcd2 | 
[V:3] cdBcA2 | 
[V:4] A,D,G,_E,D,2 | 
[V:1] G2z2B2 | 
[V:2] B>cdGd3/e/ | 
[V:3] G6 | 
[V:4] z6 | 
[V:1] A>GF>DE2 | 
[V:2] f2zBc2 | 
[V:3] d4A2 | 
[V:4] z6 | 
[V:1] D>EFG2F/E/ | 
[V:2] d2z2G3/A/ | 
[V:3] B4c2 | 
[V:4] B,,>C,D,_E,>D,C, | 
[V:1] FBAG2^F | 
[V:2] B2cdef | 
[V:3] d2cBA2 | 
[V:4] B,,G,,A,,B,,C,D, | 
[V:1] G6- | 
[V:2] B>cd_e2d | 
[V:3] G6- | 
[V:4] G,,2zC,2B,, | 
[V:1] G6 ||  
[V:2] d6 ||  
[V:3] G6 ||  
[V:4] G,,6 ||  
[V:1] [M:2/2]z4 | 
[V:2] [M:2/2]G2B3/G/ | 
[V:3] [M:2/2]z4 | 
[V:4] [M:2/2]G,3E, | 
[V:1] z4 | 
[V:2] ABc_e- | 
[V:3] z4 | 
[V:4] F,G,C,G,- | 
[V:1] z2G2 | 
[V:2] ed2c | 
[V:3] z4 | 
[V:4] G,F,_E,2 | 
[V:1] FA2G/F/ | 
[V:2] d2zd | 
[V:3] z4 | 
[V:4] D,2z2 | 
[V:1] ED>CB, | 
[V:2] cB>AG | 
[V:3] z4 | 
[V:4] z4 | 
[V:1] A,G,A,2 | 
[V:2] FG2^F | 
[V:3] z4 | 
[V:4] z2zD, | 
[V:1] zG,A,B,- | 
[V:2] G/A/B/c/AG | 
[V:3] z4 | 
[V:4] E,2F,G,- | 
[V:1] B,/C<DC/A, | 
[V:2] z4 | 
[V:3] z4 | 
[V:4] G,/F,/D,G,F,- | 
[V:1] z4 | 
[V:2] zFGA | 
[V:3] z4 | 
[V:4] F,D,C,2 | 
[V:1] zDEF | 
[V:2] D2z2 | 
[V:3] z4 | 
[V:4] B,,2A,,2 | 
[V:1] B,2zD | 
[V:2] zDEF | 
[V:3] z4 | 
[V:4] G,,2z2 | 
[V:1] EFGA | 
[V:2] GAG/G^F/ | 
[V:3] z4 | 
[V:4] z2zD, | 
[V:1] GcBG | 
[V:2] GAB3/A/ | 
[V:3] z4 | 
[V:4] E,F,G,3/F,/ | 
[V:1] z4 | 
[V:2] Bcd3/c/ | 
[V:3] z4 | 
[V:4] G,A,D,G,- | 
[V:1] z4 | 
[V:2] BA/G<FG/ | 
[V:3] z4 | 
[V:4] G,/F,/G,A,/G,/F,/E,/ | 
[V:1] z4 | 
[V:2] A/B<AB/c- | 
[V:3] z4 | 
[V:4] F,>G,D,C,/D,/ | 
[V:1] z4 | 
[V:2] c/B/A/G/FG- | 
[V:3] z4 | 
[V:4] _E,/D,/C,/B,,/A,,B,, | 
[V:1] z2G,C | 
[V:2] G/E/FG/E/^F | 
[V:3] z4 | 
[V:4] C,D,G,,A,, | 
[V:1] B,DC3/B,//A,// | 
[V:2] G2zc | 
[V:3] z4 | 
[V:4] G,,2z2 | 
[V:1] G,2GA | 
[V:2] Bdc3/A/ | 
[V:3] z4 | 
[V:4] z4 | 
[V:1] B>cAG | 
[V:2] G2de | 
[V:3] z4 | 
[V:4] z4 | 
[V:1] A>Bcd- | 
[V:2] f>ged- | 
[V:3] z4 | 
[V:4] D,2A,B, | 
[V:1] d/c<BA/c- | 
[V:2] dg>fa- | 
[V:3] z4 | 
[V:4] G,>A,B,F,- | 
[V:1] c/B/A/G/A2 | 
[V:2] a/g/^f/e/^f2 | 
[V:3] z4 | 
[V:4] F,G,D,2 | 
[V:1] G>F _E/D/C/B,/ | 
[V:2] g/f/_e/d/ c/B/A/G/ | 
[V:3] z4 | 
[V:4] z4 | 
[V:1] A,/G,/G2^F | 
[V:2] cBA2 | 
[V:3] z4 | 
[V:4] zG,,D,2 | 
[V:1] G4- | 
[V:2] G4- | 
[V:3] z4 | 
[V:4] G,,C,B,,C, | 
[V:1] G4 ||  
[V:2] G4 ||  
[V:3] z4 ||  
[V:4] G,,4 ||  
[V:1] [M:2/2]F4- | 
[V:2] [M:2/2]A4- | 
[V:3] [M:2/2]d4- | 
[V:4] [M:2/2]D,4- | 
[V:1] F3G | 
[V:2] A2B2 | 
[V:3] d4- | 
[V:4] D,4- | 
[V:1] A4- | 
[V:2] A2d2- | 
[V:3] d4 | 
[V:4] D,4- | 
[V:1] A3G/F/ | 
[V:2] df2e/d/ | 
[V:3] A4- | 
[V:4] D,4 | 
[V:1] E4 | 
[V:2] ^c>=B^c2 | 
[V:3] A4 | 
[V:4] z4 | 
[V:1] D2d2- | 
[V:2] d3e | 
[V:3] B4- | 
[V:4] B,,3C, | 
[V:1] d2B2 | 
[V:2] f2g2- | 
[V:3] B4 | 
[V:4] D,2_E,2- | 
[V:1] G2A2 | 
[V:2] g2_e2 | 
[V:3] c4 | 
[V:4] E,2C,2 | 
[V:1] B3A | 
[V:2] d2f2- | 
[V:3] d4- | 
[V:4] B,,4 | 
[V:1] F2B2 | 
[V:2] f2-f2- | 
[V:3] d4 | 
[V:4] B,4 | 
[V:1] AA>GF/E/ | 
[V:2] f_e/d/c2 | 
[V:3] c4 | 
[V:4] F,4 | 
[V:1] D2G2- | 
[V:2] z2d2- | 
[V:3] B4 | 
[V:4] G,4 | 
[V:1] G2^F2 | 
[V:2] df>ed/c/ | 
[V:3] A4 | 
[V:4] D,4 | 
[V:1] G4- | 
[V:2] (3:2:2B2B2 | 
[V:3] G4 | 
[V:4] _E,4 | 
[V:1] G3F/_E/ | 
[V:2] (3c2G2A2 | 
[V:3] z4 | 
[V:4] C,4 | 
[V:1] D2E2 | 
[V:2] B2GA- | 
[V:3] z4 | 
[V:4] B,,2C,2 | 
[V:1] FEDC | 
[V:2] A/G/G^F3/E/ | 
[V:3] z4 | 
[V:4] A,,4 | 
[V:1] B,>CD_E- | 
[V:2] G4 | 
[V:3] G4- | 
[V:4] G,,>A,,B,,C,- | 
[V:1] E/F/G2F/_E/ | 
[V:2] z2B3/c/ | 
[V:3] G4 | 
[V:4] C,/D,/_E,2D,/C,/ | 
[V:1] D2zG- | 
[V:2] d2B_e- | 
[V:3] B4 | 
[V:4] B,,2_E,2- | 
[V:1] G/A/B2A/G/ | 
[V:2] ed/c<Bc/ | 
[V:3] G4 | 
[V:4] E,2_E,2 | 
[V:1] F3E/D/ | 
[V:2] d3c/B/ | 
[V:3] A4- | 
[V:4] D,4 | 
[V:1] EFEA- | 
[V:2] c>def- | 
[V:3] A4- | 
[V:4] z4 | 
[V:1] A=B^c2 | 
[V:2] fe/d/e2 | 
[V:3] A4 | 
[V:4] z4 | 
[V:1] d3c | 
[V:2] d4- | 
[V:3] B4 | 
[V:4] z2B,3/A,/ | 
[V:1] AB>AA | 
[V:2] d4 | 
[V:3] z4 | 
[V:4] F,G,2F, | 
[V:1] B2FG- | 
[V:2] B4- | 
[V:3] z4 | 
[V:4] G,>F,D,_E,- | 
[V:1] GFG2 | 
[V:2] B2G2 | 
[V:3] z4 | 
[V:4] E,D,_E,2 | 
[V:1] F4 | 
[V:2] A2B2 | 
[V:3] d4- | 
[V:4] D,4 | 
[V:1] A2B2 | 
[V:2] F2G2 | 
[V:3] d4 | 
[V:4] z4 | 
[V:1] c3B | 
[V:2] A3G | 
[V:3] c4- | 
[V:4] z4 | 
[V:1] A2G2- | 
[V:2] F>ECG- | 
[V:3] c4 | 
[V:4] z2C,2 | 
[V:1] GFF2 | 
[V:2] G2c2- | 
[V:3] B2A2 | 
[V:4] _E,2F,2 | 
[V:1] GEE3/D/ | 
[V:2] c4 | 
[V:3] G4 | 
[V:4] C,4 | 
[V:1] F4 | 
[V:2] A4 | 
[V:3] F4 | 
[V:4] D,4 | 
[V:1] G2B2- | 
[V:2] G3F | 
[V:3] z4 | 
[V:4] G,,4- | 
[V:1] B2G2- | 
[V:2] D4 | 
[V:3] z2G2 | 
[V:4] G,,4 | 
[V:1] G2F2 | 
[V:2] d4 | 
[V:3] B4 | 
[V:4] z2D,2 | 
[V:1] G2B2 | 
[V:2] z2B2 | 
[V:3] G4 | 
[V:4] _E,2G,2 | 
[V:1] c2d2- | 
[V:2] f2d2- | 
[V:3] A2B2 | 
[V:4] F,2zG,- | 
[V:1] dcBA | 
[V:2] d_ef2 | 
[V:3] d4 | 
[V:4] G,F,/_E,/D,2 | 
[V:1] c2BA- | 
[V:2] g2ff- | 
[V:3] _e2dc- | 
[V:4] C,2D,F,- | 
[V:1] AGG2- | 
[V:2] f/_e/dc3/B/ | 
[V:3] cB/A/G2 | 
[V:4] F,G,_E,2 | 
[V:1] G2^F2 | 
[V:2] d4 | 
[V:3] A4 | 
[V:4] D,4 | 
[V:1] G4 ||  
[V:2] d4 ||  
[V:3] G4 ||  
[V:4] G,,4 ||  
[V:1] [M:2/2]F4- | 
[V:2] [M:2/2]d4 | 
[V:3] [M:2/2]z4 | 
[V:4] [M:2/2]z4 | 
[V:1] F4- | 
[V:2] d>cA2 | 
[V:3] z4 | 
[V:4] z4 | 
[V:1] F4 | 
[V:2] d4 | 
[V:3] z4 | 
[V:4] z4 | 
[V:1] B4- | 
[V:2] G>ABc | 
[V:3] z4 | 
[V:4] z4 | 
[V:1] B4 | 
[V:2] defg- | 
[V:3] z4 | 
[V:4] z4 | 
[V:1] A4 | 
[V:2] g^f/e/^f2 | 
[V:3] z4 | 
[V:4] z4 | 
[V:1] G2B2- | 
[V:2] g3f/e/ | 
[V:3] z4 | 
[V:4] z4 | 
[V:1] BA/G/BA- | 
[V:2] d4 | 
[V:3] z4 | 
[V:4] z4 | 
[V:1] AG/F/AG- | 
[V:2] c4 | 
[V:3] z4 | 
[V:4] z4 | 
[V:1] GF/E/GF- | 
[V:2] B2zd- | 
[V:3] z4 | 
[V:4] z4 | 
[V:1] FE/D/ED- | 
[V:2] dc/B/cB | 
[V:3] z4 | 
[V:4] z4 | 
[V:1] DG2^F | 
[V:2] G2A2 | 
[V:3] z4 | 
[V:4] z4 | 
[V:1] G4 | 
[V:2] G2c2- | 
[V:3] z4 | 
[V:4] z4 | 
[V:1] E2F2 | 
[V:2] c2d2- | 
[V:3] z4 | 
[V:4] z4 | 
[V:1] D4 | 
[V:2] d2B2 | 
[V:3] z4 | 
[V:4] z4 | 
[V:1] E4 | 
[V:2] c2A2- | 
[V:3] z4 | 
[V:4] z4 | 
[V:1] F2GF | 
[V:2] A2B2 | 
[V:3] z4 | 
[V:4] z4 | 
[V:1] EDC2 | 
[V:2] cBAG | 
[V:3] z4 | 
[V:4] z4 | 
[V:1] zDE2 | 
[V:2] F2zG | 
[V:3] z4 | 
[V:4] z4 | 
[V:1] F2D2 | 
[V:2] A2B2 | 
[V:3] z4 | 
[V:4] z4 | 
[V:1] G2EF- | 
[V:2] Gc2A | 
[V:3] z4 | 
[V:4] z4 | 
[V:1] FE/D/EC | 
[V:2] B2GA | 
[V:3] z4 | 
[V:4] z4 | 
[V:1] D2B,C- | 
[V:2] FG2A- | 
[V:3] z4 | 
[V:4] z4 | 
[V:1] C/D/_EDC/B,/ | 
[V:2] A/B/cBA/G/ | 
[V:3] z4 | 
[V:4] z4 | 
[V:1] A,B,>A,C- | 
[V:2] FG>FA- | 
[V:3] z4 | 
[V:4] z4 | 
[V:1] C/B,/A,/G,/A,B,- | 
[V:2] A/G/F/E/FD | 
[V:3] z4 | 
[V:4] z4 | 
[V:1] B,/G,/D2C/B,/ | 
[V:2] G2D_E | 
[V:3] z4 | 
[V:4] z4 | 
[V:1] CG,A,2 | 
[V:2] CG2^F | 
[V:3] z4 | 
[V:4] z4 | 
[V:1] G,4 ||  
[V:2] G4 ||  
[V:3] z4 ||  
[V:4] z4 ||  
[V:1] [M:2/2]z4 | 
[V:2] [M:2/2]d4- | 
[V:3] [M:2/2]z4 | 
[V:4] [M:2/2]D,3E, | 
[V:1] z4 | 
[V:2] d4- | 
[V:3] z4 | 
[V:4] F,G,2F,/E,/ | 
[V:1] z4 | 
[V:2] d4- | 
[V:3] z4 | 
[V:4] F,G,(3D, E, F, | 
[V:1] z4 | 
[V:2] d4 | 
[V:3] z4 | 
[V:4] B,,B,2A,/G,/ | 
[V:1] z4 | 
[V:2] c2d2 | 
[V:3] z4 | 
[V:4] A,2zF, | 
[V:1] z4 | 
[V:2] _e2d2- | 
[V:3] z4 | 
[V:4] G,2D,2 | 
[V:1] z4 | 
[V:2] dc>BA/G/ | 
[V:3] z4 | 
[V:4] _E,4 | 
[V:1] z4 | 
[V:2] F4 | 
[V:3] z4 | 
[V:4] D,4- | 
[V:1] z4 | 
[V:2] z2f2 | 
[V:3] z4 | 
[V:4] D,4 | 
[V:1] z4 | 
[V:2] _eg>fd- | 
[V:3] z4 | 
[V:4] C,2B,,2 | 
[V:1] z4 | 
[V:2] dc/B/dc- | 
[V:3] z4 | 
[V:4] F,4 | 
[V:1] z4 | 
[V:2] cB2A | 
[V:3] z4 | 
[V:4] D,B,,C,2 | 
[V:1] D2F2- | 
[V:2] B4 | 
[V:3] z4 | 
[V:4] B,,4- | 
[V:1] FGG3/F/ | 
[V:2] z2B2 | 
[V:3] z4 | 
[V:4] B,,4- | 
[V:1] D2B,B- | 
[V:2] f4 | 
[V:3] z4 | 
[V:4] B,,4- | 
[V:1] BA/G/F2 | 
[V:2] g>fd2 | 
[V:3] z4 | 
[V:4] B,,4- | 
[V:1] G2F2 | 
[V:2] z2B2- | 
[V:3] z4 | 
[V:4] B,,4- | 
[V:1] D2zF- | 
[V:2] BAF2- | 
[V:3] z4 | 
[V:4] B,,4 | 
[V:1] FE/D/F2 | 
[V:2] FGAB | 
[V:3] z4 | 
[V:4] D,4 | 
[V:1] E2G2- | 
[V:2] c3B | 
[V:3] z4 | 
[V:4] C,4- | 
[V:1] GFDE | 
[V:2] G2B2- | 
[V:3] z4 | 
[V:4] C,2B,,2 | 
[V:1] FG>FA- | 
[V:2] B2c2 | 
[V:3] z4 | 
[V:4] G,,2z2 | 
[V:1] A/G/^F/E/F2 | 
[V:2] A4 | 
[V:3] z4 | 
[V:4] D,4 | 
[V:1] G4 |]  
[V:2] G4 |]  
[V:3] z4 |]  
[V:4] G,,4 |]  


